z_dist/img/icons/crypto/bitcoin-bep2-BTCB.svg

<svg width="64" height="64" viewBox="0 0 64 64" fill="none" xmlns="http://www.w3.org/2000/svg">
<rect width="64" height="64" rx="4" fill="url(#paint0_linear_573_470546)"/>
<path fill-rule="evenodd" clip-rule="evenodd" d="M46.1068 27.4409C46.7438 23.1824 43.5016 20.8933 39.0683 19.3662L40.5065 13.5977L36.995 12.7227L35.5949 18.3394C34.6718 18.1091 33.7238 17.8922 32.7815 17.6771L34.1918 12.0234L30.6825 11.1484L29.2435 16.9151C28.4796 16.7411 27.7292 16.5692 27.0013 16.3881L27.0054 16.37L22.163 15.1607L21.2289 18.9112C21.2289 18.9112 23.8341 19.5084 23.7792 19.5452C25.2011 19.9001 25.4583 20.8414 25.4156 21.5874L23.7773 28.1591C23.8752 28.184 24.0022 28.22 24.1424 28.2763L24.0404 28.2508C23.9538 28.2292 23.8637 28.2066 23.7712 28.1845L21.4749 37.3905C21.3011 37.8225 20.86 38.4708 19.8659 38.2246C19.9011 38.2756 17.3137 37.5877 17.3137 37.5877L15.5703 41.6072L20.1399 42.7464C20.6403 42.8719 21.1348 43.0008 21.6243 43.1284C21.9664 43.2176 22.306 43.3061 22.6435 43.3924L21.1904 49.227L24.6978 50.102L26.1368 44.3293C27.095 44.5894 28.0249 44.8293 28.9352 45.0555L27.501 50.801L31.0127 51.676L32.4656 45.8523C38.4534 46.9855 42.9557 46.5286 44.8508 41.1127C46.3779 36.7522 44.7748 34.237 41.6247 32.5969C43.9191 32.0678 45.6473 30.5587 46.1081 27.4414L46.107 27.4406L46.1068 27.4409ZM38.0832 38.6914C37.0876 42.692 30.8256 41.038 27.9605 40.2813L27.9602 40.2812C27.7026 40.2132 27.4724 40.1524 27.276 40.1036L29.2043 32.3737C29.4437 32.4335 29.7363 32.4991 30.0677 32.5735L30.0677 32.5735C33.0313 33.2386 39.1033 34.6013 38.0834 38.6914H38.0832ZM30.6617 28.9855C33.0503 29.623 38.2612 31.0137 39.1687 27.3777H39.169C40.0957 23.6589 35.0316 22.5377 32.5583 21.9901C32.2801 21.9285 32.0346 21.8742 31.8342 21.8242L30.0859 28.8348C30.251 28.876 30.4447 28.9276 30.6617 28.9855Z" fill="white"/>
<defs>
<linearGradient id="paint0_linear_573_470546" x1="32" y1="0" x2="32" y2="64" gradientUnits="userSpaceOnUse">
<stop stop-color="#FCC538"/>
<stop offset="1" stop-color="#F7931A"/>
</linearGradient>
</defs>
</svg>

<svg width="64" height="64" fill="none" xmlns="http://www.w3.org/2000/svg"><rect width="64" height="64" rx="4" fill="url(#paint0_linear_573_470546)"/><path fill-rule="evenodd" clip-rule="evenodd" d="M46.107 27.44c.637-4.258-2.605-6.547-7.039-8.074l1.439-5.768-3.512-.875-1.4 5.616a145.07 145.07 0 00-2.813-.662l1.41-5.654-3.51-.875-1.438 5.767c-.764-.174-1.515-.346-2.243-.527l.004-.018-4.842-1.21-.934 3.751s2.605.597 2.55.634c1.422.355 1.68 1.296 1.637 2.042l-1.639 6.572c.098.025.225.061.365.117l-.102-.025-.269-.067-2.296 9.207c-.174.431-.615 1.08-1.61.834.036.05-2.551-.637-2.551-.637l-1.744 4.02 4.57 1.138c.5.126.995.255 1.484.382.342.09.682.178 1.02.264l-1.454 5.835 3.508.875 1.439-5.773c.958.26 1.888.5 2.798.727L27.501 50.8l3.512.875 1.453-5.824c5.987 1.134 10.49.677 12.385-4.74 1.527-4.36-.076-6.875-3.226-8.515 2.294-.53 4.022-2.038 4.483-5.156h-.001zm-8.024 11.251c-.995 4.001-7.257 2.347-10.122 1.59-.258-.068-.489-.129-.685-.177l1.928-7.73c.24.06.532.125.864.2 2.963.665 9.035 2.027 8.015 6.117zm-7.421-9.706c2.388.638 7.6 2.029 8.507-1.607.927-3.72-4.137-4.84-6.61-5.388a27.406 27.406 0 01-.725-.166l-1.748 7.01c.165.042.359.094.576.151z" fill="#fff"/><defs><linearGradient id="paint0_linear_573_470546" x1="32" y1="0" x2="32" y2="64" gradientUnits="userSpaceOnUse"><stop stop-color="#FCC538"/><stop offset="1" stop-color="#F7931A"/></linearGradient></defs></svg>
